X: 3749
T:Shores of Lough Gowna
R:double jig
C:Jig
M:6/8
L:1/8
K:D
|A|BcB BAF|FEF DFA|BcB BAF|d2e fdc|!
BcB BAF|FEF DFA|def geg|fdB B2:|!
|:A|def a2b|afb afe|d4ef|geg fdB|!
def a2b|afb afe|def geg|fdB B2:|!
